X:1
T:Praise Our Creator
T:Praise Our Creator
T:Theodore Frelinghuysen Seward
T:Frances Jane (Fanny) Crosby, 1895
T:Public Domain Courtesy of the Cyber Hymnal™
T:Public Domain Courtesy of the Cyber Hymnal™
C:Theodore Frelinghuysen Seward
Z:Public Domain
Z:Courtesy of the Cyber Hymnal™
%%score ( 1 2 ) ( 3 4 )
L:1/8
Q:1/4=110
M:4/4
K:C
V:1 treble 
V:2 treble 
V:3 bass 
V:4 bass 
V:1
 [CE]2 [CE]>[DF] [FA]2 [EG]>[Ec] | [Ge]2 [Fc]>[FA] [FA]2 [EG]2 | [DF]2 [DG]>[DF] [CE]2 [Ec]>[DB] | %3
w: 1.~Praise our cre- at- or and|Sav- ior e- ter- nal,|Him who re- deemed us from|
w: 2.~Praise our cre- at- or and|gra- cious de- fend- er,|Rock where in safe- ty we|
w: 3.~Praise our cre- at- or, the|fount- ain of good- ness,|Now in His grand- eur ex-|
 [CA]2 [DB]>[CA] (G2 F2) | [CE]2 [CE]>[DF] [FA]2 [EG]>[Ec] | [Ge]2 [Fc]>[FA] [FA]2 [EG]2 | %6
w: death and the grave; *|Sing of His great- ness, O|hail and a- dore Him,|
w: still may a- bide; *|He is our shep- herd, how|gent- ly He leads us,|
w: alt- ed a- bove; *|Rest in His mer- cy and|trust in His prom- ise,|
 [FA]2 [^GB]>[GB] [Ac]2 [=Ge]>[Fd] | [Ec]2 [FB]>[FB] [Ec]4 ||"^Refrain" A4 c4 | c4 G4 | %10
w: Strong to de- liv- er, and|might- y to save.|||
w: Where in the val- ley the|cool wa- ters glide.|Praise Him,|praise Him,|
w: Ev- er to keep us, up-|held by His love.|||
 [FG]>[FA] [FB]>[Fc] [Fd]2 [FG]2 | [EG]>[DB] [Ec]>[Fd] [Ge]2 [Ec]2 | A4 c4 | c4 G4 | %14
w: ||||
w: Glo- ry in the high- est|un- to Him as- crib- ing;|Praise Him,|praise Him,|
w: ||||
 [FG]>[FA] [FB]>[Fc] [Fd]2 [FG]2 | [Ec]2 [Fc]2 [Ec]4 |] %16
w: ||
w: Bless- èd be His name, our|Lord and king!|
w: ||
V:2
 x8 | x8 | x8 | x4 B,4 | x8 | x8 | x8 | x8 || (F2 F2) (F2 F2) | (E2 E2) (E2 E2) | x8 | x8 | %12
 (F2 F2) (F2 F2) | (E2 E2) (E2 E2) | x8 | x8 |] %16
V:3
 [C,C]2 [C,C]>[C,C] [C,C]2 [C,C]>[C,G,] | [C,G,]2 [C,A,]>[C,C] [C,C]2 [C,C]2 | %2
w: ~ ~ ~ ~ ~ ~|~ ~ ~ ~ ~|
 [G,B,]2 [G,B,]>[G,B,] [C,C]2 [C,G,]>[C,G,] | [D,^F,]2 [D,F,]>[D,F,] [G,,G,]4 | %4
w: ~ ~ ~ ~ ~ ~|~ ~ ~ ~|
 [C,C]2 [C,C]>[C,C] [C,C]2 [C,C]>[C,G,] | [C,G,]2 [C,A,]>[C,C] [C,C]2 [C,C]2 | %6
w: ~ ~ ~ ~ ~ ~|~ ~ ~ ~ ~|
 [F,C]2 [E,E]>[E,E] [A,E]2 [E,C]>[F,A,] | G,2 [G,D]>[G,D] [C,C]4 || [F,C]2 [F,C]2 [F,A,]2 [F,A,]2 | %9
w: ~ ~ ~ ~ ~ ~|~ ~ ~ ~|Praise Him, praise Him,|
 [C,G,]2 [C,G,]2 [C,C]2 [C,C]2 | [G,B,]>[G,C] [G,D]>[G,C] [G,B,]2 [G,B,]2 | %11
w: praise Him, ~ ~|~ ~ ~ ~ ~ ~|
 [C,C]>[C,C] [C,C]>[C,C] [C,C]2 [C,C]2 | [F,C]2 [F,C]2 [F,A,]2 [F,A,]2 | %13
w: ~ ~ ~ ~ ~ ~|Praise Him, praise Him,|
 [C,G,]2 [C,G,]2 [C,C]2 [C,C]2 | [G,B,]>[G,C] [G,D]>[G,C] [G,B,]2 [G,B,]2 | %15
w: praise Him, * *||
 [C,C]2 [C,A,]2 [C,G,]4 |] %16
w: |
V:4
 x8 | x8 | x8 | x8 | x8 | x8 | x8 | G,2 x6 || x8 | x8 | x8 | x8 | x8 | x8 | x8 | x8 |] %16

